contributed-vectors/trust_alt.svg

<svg xmlns="http://www.w3.org/2000/svg" width="192" height="192" fill="none"><g clip-path="url(#a)"><path fill="#fff" fill-rule="evenodd" d="M30 19h133c5.5 0 10 4.5 10 10v133c0 5.5-4.5 10-10 10H30c-5.5 0-10-4.5-10-10V29c0-5.5 4.5-10 10-10Z" clip-rule="evenodd"/><path fill="#728DBE" d="M96.5 132c-.8 0-1.5-.2-2.2-.7-4.1-2.9-7.5-4.8-10.6-6.5C70 117.4 66 113.4 65.4 71.5c0-1 .4-2 1.1-2.7.7-.7 1.7-1.1 2.7-1.1h.6c4.1 0 14.8.1 24.3-7.8 1.4-1.2 3.4-1.2 4.8 0 9.5 7.9 20.3 7.8 24.3 7.8h.6c1 0 2 .4 2.7 1.1.7.7 1.1 1.7 1.1 2.7-.6 41.9-4.6 45.9-18.3 53.4-3.1 1.7-6.5 3.5-10.6 6.5-.7.4-1.5.6-2.2.6ZM73 75.1c.7 35.8 4.1 37.6 14.3 43.1 2.6 1.4 5.7 3.1 9.2 5.5 3.5-2.4 6.7-4.1 9.2-5.5 10.3-5.5 13.6-7.3 14.3-43.1-5.4-.2-14.8-1.4-23.6-7.6-8.7 6.2-18 7.4-23.4 7.6Z"/></g><defs><clipPath id="a"><path fill="#fff" d="M0 0h192v192H0z"/></clipPath></defs></svg>

<svg width="192" height="192" viewBox="0 0 192 192" fill="none" xmlns="http://www.w3.org/2000/svg">
<g clip-path="url(#clip0)">
<path fill-rule="evenodd" clip-rule="evenodd" d="M30 19H163C168.5 19 173 23.5 173 29V162C173 167.5 168.5 172 163 172H30C24.5 172 20 167.5 20 162V29C20 23.5 24.5 19 30 19Z" fill="white"/>
<path d="M96.5 132C95.7 132 95 131.8 94.3 131.3C90.2 128.4 86.8 126.5 83.7 124.8C70 117.4 66 113.4 65.4 71.5C65.4 70.5 65.8 69.5 66.5 68.8C67.2 68.1 68.2 67.7 69.2 67.7H69.8C73.9 67.7 84.6 67.8 94.1 59.9C95.5 58.7 97.5 58.7 98.9 59.9C108.4 67.8 119.2 67.7 123.2 67.7H123.8C124.8 67.7 125.8 68.1 126.5 68.8C127.2 69.5 127.6 70.5 127.6 71.5C127 113.4 123 117.4 109.3 124.9C106.2 126.6 102.8 128.4 98.7 131.4C98 131.8 97.2 132 96.5 132ZM73 75.1C73.7 110.9 77.1 112.7 87.3 118.2C89.9 119.6 93 121.3 96.5 123.7C100 121.3 103.2 119.6 105.7 118.2C116 112.7 119.3 110.9 120 75.1C114.6 74.9 105.2 73.7 96.4 67.5C87.7 73.7 78.4 74.9 73 75.1Z" fill="#728DBE"/>
</g>
<defs>
<clipPath id="clip0">
<rect width="192" height="192" fill="white"/>
</clipPath>
</defs>
</svg>
